X:1
T:Title
%%score { ( 1 2 3 ) | ( 4 5 ) }
L:1/8
Q:1/4=88
M:4/4
K:Eb
V:1 treble nm="Grand Piano"
V:2 treble 
V:3 treble 
V:4 bass 
V:5 bass 
V:1
 z2 z G _G2 =G2 | [DB]2 [DA]2 [DG]2 [DF]2 | [CE]4 z4 | [CEc]2 [DFc]2 [EGB]4 | [Ge]3 e d2 G2 | %5
 c4 z4 | B3 A G2 F2 | G2 .[B,DF]2 [G,EG]4 | B,2- [B,-DF]2 [B,EB]2 (3GFG | C4 z2 f2 | %10
 [Ad-]2 d2 z2 [DG]2 |[M:3/4] E>E c->[Ac] [EGB]2 |[M:1/4] z2 |[M:4/4] B,2- [B,-DF]2 [B,EB]2 (3GFG | %14
 C2- [C-EG]2 [CFc]2 (3AGF | f>e d>c c>B =A>B |[M:6/4] g3 f3 [Ge]6 |] %17
V:2
 [EG]4 z4 | x8 | z2 z E [G,CD]2 [CE]2 | x8 | E2 E2 z4 | z2 z c B2 G2 | x8 | x8 | [DG]2 z2 z4 | %9
 [=EA]2 [EG]2 [CFc]2 (3AGF | F2- [F-A]>[Fc] [FB]>A B,->[B,F] |[M:3/4] z2 [EA]2 z2 |[M:1/4] x2 | %13
[M:4/4] [DG]2 z2 z4 | [EA]2 z2 z4 | x8 |[M:6/4] x12 |] %17
V:3
 z2 B,2 z4 | x8 | z2 G,2 z4 | x8 | x8 | z2 D2 z4 | x8 | x8 | x8 | x8 | x8 |[M:3/4] x6 |[M:1/4] x2 | %13
[M:4/4] x8 | x8 | x8 |[M:6/4] x12 |] %17
V:4
 [E,B,]2 z E [E,=A,E]2 [E,B,E]2 | [B,,B,]2 [B,,F,]2 [B,,B,]2 [B,,A,]2 | [C,G,]2 z C C,2 C,2 | %3
 A,,2 A,,2 E,4 | C2 z G [B,EG]2 [B,E]2 | A3 F[K:bass] [G,E]2 [=E,_D]2 | %6
 [F,CF]3 [F,CF] [G,CE]2 [A,CE]2 | [B,E]2 z A, E,4 | B,,2 A,2 G,2 (3E,D,_D, | C,2 B,2 A,2 (3F,G,A, | %10
 z z/[K:treble] A/ z z/ A/[K:bass] z z/ F/ (3B,,C,D, |[M:3/4] [E,G,]2 z z/ E/ E,2 | %12
[M:1/4] (3E,D,C, |[M:4/4] B,,2 A,2 G,2 (3E,D,D, | C,2 B,2 A,2 (3F,G,A, | %15
 [=A,CF]>[A,CF] [A,D_G]>[A,EG] [B,E=G]>[B,EG] [=B,E_G]>[_B,E=G] | %16
[M:6/4] [B,EB]3 [B,DA]3[K:bass] [E,E]6 |] %17
V:5
 z2 E,2 z4 | x8 | z2 C,2 z4 | x8 | z2 C2 z4 | [A,E]2 A,2[K:bass] z4 | x8 | z2 B,,2 z4 | x8 | x8 | %10
 B,2[K:treble] B,2[K:bass] B,,2 z z/ D/ |[M:3/4] z2 E,2 z2 |[M:1/4] x2 |[M:4/4] x8 | x8 | x8 | %16
[M:6/4] x6[K:bass] x6 |] %17

